svg/u1f481_1f3fc_200d_2642.svg

<svg viewBox="0 0 128 128" xmlns="http://www.w3.org/2000/svg">
  <g id="shirt">
    <linearGradient id="shirt_x5F_fill_1_" gradientTransform="matrix(1 0 0 -1 0 128)" gradientUnits="userSpaceOnUse" x1="50.127" x2="50.127" y1="32.0001" y2="4">
      <stop offset="0" stop-color="#00BFA5"/>
      <stop offset="0.4701" stop-color="#00B29A"/>
      <stop offset="1" stop-color="#009E89"/>
    </linearGradient>
    <path id="shirt_x5F_fill" d="M96.25,124v-2.88c0-16.68-23.56-25.15-47.63-25.12 c-18.3,0.02-36.88,4.38-44.62,14.32V124H96.25z" fill="url(#shirt_x5F_fill_1_)"/>
  </g>
  <g id="neck">
    <path d="M38.93,88.95v9.98c0,4.51,3.7,8.17,8.26,8.17h1.65c4.56,0,8.26-3.66,8.26-8.17v-9.98 C57.1,88.95,38.93,88.95,38.93,88.95z" fill="#C48E6A"/>
  </g>
  <g id="ears">
    <path d="M75.58,50.43H20.93c-5.89,0-10.71,5.14-10.71,11.41s4.82,11.41,10.71,11.41h54.65 c5.89,0,10.71-5.14,10.71-11.41S81.47,50.43,75.58,50.43z" fill="#C48E6A"/>
  </g>
  <path id="head" d="M48.25,11.07L48.25,11.07L48.25,11.07c-17.4,0-33.52,18.61-33.52,45.4 c0,26.64,16.61,39.81,33.52,39.81S81.77,83.1,81.77,56.46C81.77,29.68,65.66,11.07,48.25,11.07z" fill="#E0BB95"/>
  <g id="eyes">
    <ellipse cx="31.82" cy="58.81" fill="#5D4037" rx="4.93" ry="5.1"/>
    <ellipse cx="64.69" cy="58.81" fill="#5D4037" rx="4.93" ry="5.1"/>
  </g>
  <g id="eyebrows_1_">
    <path d="M24,50.73c3.18-4.51,10.66-4.66,14.41-0.82c0.65,0.67,1.34,1.53,0.85,2.5 c-0.54,1.07-1.65,0.9-2.56,0.53c-2.43-0.98-4.93-1.42-7.55-0.89c-1.13,0.23-2.1,0.7-3.17,1.08C24.54,53.62,23.07,52.12,24,50.73z" fill="#AB872F"/>
    <path d="M70.06,53.13c-2.23-0.97-4.49-1.53-6.95-1.25c-1.12,0.13-2.22,0.42-3.26,0.83 c-0.83,0.33-1.72,0.86-2.58,0.28c-2.45-1.69,1.9-4.44,3.17-4.99c2.76-1.19,6.05-1.08,8.72,0.31c1.06,0.55,2.21,1.35,2.84,2.4 C72.79,52.02,71.61,53.76,70.06,53.13z" fill="#AB872F"/>
  </g>
  <path id="mouth" d="M56.67,76.14c-3.19,1.89-13.63,1.89-16.81,0c-1.83-1.09-3.7,0.58-2.94,2.24 c0.75,1.63,6.44,5.42,11.37,5.42s10.55-3.79,11.3-5.42C60.35,76.72,58.5,75.05,56.67,76.14z" fill="#6D4C41"/>
  <path id="nose" d="M52.11,68.06c-0.11-0.04-0.21-0.07-0.32-0.08h-7.08c-0.11,0.01-0.22,0.04-0.32,0.08 c-0.64,0.26-0.99,0.92-0.69,1.63c0.3,0.71,1.71,2.69,4.55,2.69s4.25-1.99,4.55-2.69C53.11,68.98,52.75,68.32,52.11,68.06z" fill="#C48E6A"/>
  <g id="shadow_x5F_shirt" opacity="0.28">
    <linearGradient id="SVGID_1_" gradientTransform="matrix(1 0 0 -1 0 128)" gradientUnits="userSpaceOnUse" x1="79.3152" x2="71.6077" y1="14.5343" y2="16.1769">
      <stop offset="0.2651" stop-color="#262626"/>
      <stop offset="1" stop-color="#262626" stop-opacity="0"/>
    </linearGradient>
    <path d="M81.54,102.67c-1.62-1.42-7.23-3.04-7.23-3.04L68.83,124h9.5L81.54,102.67z" fill="url(#SVGID_1_)"/>
  </g>
  <linearGradient id="hand_1_" gradientTransform="matrix(1 0 0 -1 0 128)" gradientUnits="userSpaceOnUse" x1="108.1645" x2="100.1645" y1="64.1345" y2="52.8845">
    <stop offset="0.5" stop-color="#E0BB95"/>
    <stop offset="1" stop-color="#CCA47A"/>
  </linearGradient>
  <path id="hand" d="M91.32,74.16c2.6,0.2,6.29,0.95,8.14,0.64c1.64-0.27,2-1.82,3.71-2.21 c3.62-0.82,18.26-4.12,19.78-4.49c2.14-0.53,2.89-4.53-1.67-5.28C116.76,62.07,107.4,64,107.4,64s0.5-1.43,0.15-2.38 c-0.88-2.29-3.87-1.52-5.65-1.1l-10.56,2.99C85.9,65.38,86.16,73.9,91.32,74.16z" fill="url(#hand_1_)"/>
  <g id="shirt_x5F_sleeve_x5F_right">
    <linearGradient id="sleeve_x5F_fill_1_" gradientTransform="matrix(1 0 0 -1 0 128)" gradientUnits="userSpaceOnUse" x1="90.0475" x2="90.0475" y1="55.8966" y2="10.657">
      <stop offset="0" stop-color="#00BFA5"/>
      <stop offset="0.4701" stop-color="#00B29A"/>
      <stop offset="1" stop-color="#009E89"/>
    </linearGradient>
    <path id="sleeve_x5F_fill" d="M102.6,73.69c-0.03-0.9-0.73-1.63-1.63-1.69l-12.72-0.76 c-0.93-0.07-1.75,0.61-1.86,1.54L75.58,124h28.93L102.6,73.69z" fill="url(#sleeve_x5F_fill_1_)"/>
  </g>
  <g id="hairGroup">
    <path id="hair_7_" d="M48.27,4.03L48.27,4.03c-0.01,0-0.01,0-0.02,0s-0.01,0-0.02,0l0,0 C2.8,4.27,12.11,56.17,12.11,56.17s2.04,5.35,2.97,7.71c0.13,0.34,0.63,0.3,0.71-0.05c0.97-4.34,4.46-19.73,6.22-24.41 c1.04-2.76,3.9-4.36,6.8-3.83c4.45,0.81,11.55,1.81,19.37,1.81c0.03,0,0.06,0,0.08,0s0.06,0,0.08,0c7.83,0,14.92-1,19.37-1.81 c2.9-0.53,5.76,1.08,6.79,3.83c1.75,4.66,5.22,19.96,6.2,24.36c0.08,0.36,0.58,0.39,0.71,0.05l2.98-7.67 C84.4,56.17,93.71,4.27,48.27,4.03z" fill="#AB872F"/>
    <radialGradient id="hairHighlights_1_" cx="48.2541" cy="80.9011" gradientTransform="matrix(1 0 0 -1.1282 0 138.3704)" gradientUnits="userSpaceOnUse" r="38.0924">
      <stop offset="0.7945" stop-color="#BFA055" stop-opacity="0"/>
      <stop offset="1" stop-color="#BFA055"/>
    </radialGradient>
    <path id="hairHighlights" d="M84.4,56.17c0,0,9.31-51.9-36.13-52.14v0 c-0.01,0-0.01,0-0.02,0h0c-0.01,0-0.01,0-0.02,0l0,0c-0.71,0-1.4,0.02-2.08,0.05c-1.35,0.06-2.66,0.16-3.92,0.31 c-0.01,0-0.03,0-0.04,0c-0.09,0.01-0.17,0.03-0.26,0.04C3.69,9.24,12.11,56.17,12.11,56.17l2.98,7.68c0.13,0.34,0.62,0.31,0.7-0.05 c0.98-4.39,4.46-19.71,6.22-24.37c1.04-2.76,3.9-4.36,6.8-3.83c4.45,0.81,11.55,1.81,19.37,1.81c0.03,0,0.06,0,0.08,0 s0.06,0,0.08,0c7.83,0,14.92-1,19.37-1.81c2.9-0.53,5.76,1.08,6.79,3.83c1.76,4.68,5.25,20.1,6.22,24.42 c0.08,0.36,0.57,0.39,0.7,0.05C82.35,61.54,84.4,56.17,84.4,56.17z" fill="url(#hairHighlights_1_)"/>
  </g>
</svg>

<svg viewBox="0 0 128 128" xmlns="http://www.w3.org/2000/svg">
  <defs>
    <linearGradient id="SVGID_1_" gradientTransform="matrix(1 0 0 -1 0 0)" gradientUnits="userSpaceOnUse" x1="79.3152" x2="71.6077" y1="-113.4657" y2="-111.8231">
      <stop offset="0.2651" stop-color="#262626"/>
      <stop offset="1" stop-color="#262626" stop-opacity="0"/>
    </linearGradient>
    <linearGradient id="hand_1_" gradientTransform="matrix(1 0 0 -1 0 0)" gradientUnits="userSpaceOnUse" x1="108.1645" x2="100.1645" y1="-63.8655" y2="-75.1155">
      <stop offset="0.5" stop-color="#E0BB95"/>
      <stop offset="1" stop-color="#CCA47A"/>
    </linearGradient>
    <linearGradient id="shirt_x5F_fill_1_" gradientTransform="matrix(1 0 0 -1 0 0)" gradientUnits="userSpaceOnUse" x1="50.127" x2="50.127" y1="-95.9999" y2="-124">
      <stop offset="0" stop-color="#00BFA5"/>
      <stop offset="0.4701" stop-color="#00B29A"/>
      <stop offset="1" stop-color="#009E89"/>
    </linearGradient>
    <linearGradient id="sleeve_x5F_fill_1_" gradientTransform="matrix(1 0 0 -1 0 0)" gradientUnits="userSpaceOnUse" x1="90.0475" x2="90.0475" y1="-72.1034" y2="-117.343">
      <stop offset="0" stop-color="#00BFA5"/>
      <stop offset="0.4701" stop-color="#00B29A"/>
      <stop offset="1" stop-color="#009E89"/>
    </linearGradient>
    <radialGradient id="hairHighlights_1_" cx="48.2541" cy="-41.745948" gradientTransform="matrix(1 0 0 -1.1282 0 0)" gradientUnits="userSpaceOnUse" r="38.0924">
      <stop offset="0.7945" stop-color="#BFA055" stop-opacity="0"/>
      <stop offset="1" stop-color="#BFA055"/>
    </radialGradient>
  </defs>
  <path id="shirt_x5F_fill" d="M96.25,124 L96.25,121.12 C96.25,104.44 72.69,95.97 48.62,96 C30.32,96.02 11.74,100.38 4,110.32 L4,124 L96.25,124 Z" fill="url(#shirt_x5F_fill_1_)"/>
  <path d="M38.93,88.95 L38.93,98.93 C38.93,103.44 42.63,107.1 47.19,107.1 L48.84,107.1 C53.4,107.1 57.1,103.44 57.1,98.93 L57.1,88.95 C57.1,88.95 38.93,88.95 38.93,88.95 Z" fill="#C48E6A"/>
  <path d="M75.58,50.43 L20.93,50.43 C15.04,50.43 10.22,55.57 10.22,61.84 C10.22,68.11 15.04,73.25 20.93,73.25 L75.58,73.25 C81.47,73.25 86.29,68.11 86.29,61.84 C86.29,55.57 81.47,50.43 75.58,50.43 Z" fill="#C48E6A"/>
  <path id="head" d="M48.25,11.07 L48.25,11.07 L48.25,11.07 C30.85,11.07 14.73,29.68 14.73,56.47 C14.73,83.11 31.34,96.28 48.25,96.28 C65.16,96.28 81.77,83.1 81.77,56.46 C81.77,29.68 65.66,11.07 48.25,11.07 Z" fill="#E0BB95"/>
  <path d="M36.75,58.81 A4.93 5.1 0 1 1 26.89,58.81 A4.93 5.1 0 1 1 36.75,58.81 Z" fill="#5D4037"/>
  <path d="M69.62,58.81 A4.93 5.1 0 1 1 59.76,58.81 A4.93 5.1 0 1 1 69.62,58.81 Z" fill="#5D4037"/>
  <path d="M24,50.73 C27.18,46.22 34.66,46.07 38.41,49.91 C39.06,50.58 39.75,51.44 39.26,52.41 C38.72,53.48 37.61,53.31 36.7,52.94 C34.27,51.96 31.77,51.52 29.15,52.05 C28.02,52.28 27.05,52.75 25.98,53.13 C24.54,53.62 23.07,52.12 24,50.73 Z" fill="#AB872F"/>
  <path d="M70.06,53.13 C67.83,52.16 65.57,51.6 63.11,51.88 C61.99,52.01 60.89,52.3 59.85,52.71 C59.02,53.04 58.13,53.57 57.27,52.99 C54.82,51.3 59.17,48.55 60.44,48 C63.2,46.81 66.49,46.92 69.16,48.31 C70.22,48.86 71.37,49.66 72,50.71 C72.79,52.02 71.61,53.76 70.06,53.13 Z" fill="#AB872F"/>
  <path id="mouth" d="M56.67,76.14 C53.48,78.03 43.04,78.03 39.86,76.14 C38.03,75.05 36.16,76.72 36.92,78.38 C37.67,80.01 43.36,83.8 48.29,83.8 C53.22,83.8 58.84,80.01 59.59,78.38 C60.35,76.72 58.5,75.05 56.67,76.14 Z" fill="#6D4C41"/>
  <path id="nose" d="M52.11,68.06 C52,68.02 51.9,67.99 51.79,67.98 L44.71,67.98 C44.6,67.99 44.49,68.02 44.39,68.06 C43.75,68.32 43.4,68.98 43.7,69.69 C44,70.4 45.41,72.38 48.25,72.38 C51.09,72.38 52.5,70.39 52.8,69.69 C53.11,68.98 52.75,68.32 52.11,68.06 Z" fill="#C48E6A"/>
  <path d="M81.54,102.67 C79.92,101.25 74.31,99.63 74.31,99.63 L68.83,124 L78.33,124 L81.54,102.67 Z" fill="url(#SVGID_1_)" opacity="0.28"/>
  <path id="hand" d="M91.32,74.16 C93.92,74.36 97.61,75.11 99.46,74.8 C101.1,74.53 101.46,72.98 103.17,72.59 C106.79,71.77 121.43,68.47 122.95,68.1 C125.09,67.57 125.84,63.57 121.28,62.82 C116.76,62.07 107.4,64 107.4,64 C107.4,64 107.9,62.57 107.55,61.62 C106.67,59.33 103.68,60.1 101.9,60.52 L91.34,63.51 C85.9,65.38 86.16,73.9 91.32,74.16 Z" fill="url(#hand_1_)"/>
  <path id="sleeve_x5F_fill" d="M102.6,73.69 C102.57,72.79 101.87,72.06 100.97,72 L88.25,71.24 C87.32,71.17 86.5,71.85 86.39,72.78 L75.58,124 L104.51,124 L102.6,73.69 Z" fill="url(#sleeve_x5F_fill_1_)"/>
  <path id="hair_7_" d="M48.27,4.03 L48.27,4.03 C48.26,4.03 48.26,4.03 48.25,4.03 C48.24,4.03 48.24,4.03 48.23,4.03 L48.23,4.03 C2.8,4.27 12.11,56.17 12.11,56.17 C12.11,56.17 14.15,61.52 15.08,63.88 C15.21,64.22 15.71,64.18 15.79,63.83 C16.76,59.49 20.25,44.1 22.01,39.42 C23.05,36.66 25.91,35.06 28.81,35.59 C33.26,36.4 40.36,37.4 48.18,37.4 C48.21,37.4 48.24,37.4 48.26,37.4 C48.28,37.4 48.32,37.4 48.34,37.4 C56.17,37.4 63.26,36.4 67.71,35.59 C70.61,35.06 73.47,36.67 74.5,39.42 C76.25,44.08 79.72,59.38 80.7,63.78 C80.78,64.14 81.28,64.17 81.41,63.83 L84.39,56.16 C84.4,56.17 93.71,4.27 48.27,4.03 Z" fill="#AB872F"/>
  <path id="hairHighlights" d="M84.4,56.17 C84.4,56.17 93.71,4.27 48.27,4.03 L48.27,4.03 C48.26,4.03 48.26,4.03 48.25,4.03 L48.25,4.03 C48.24,4.03 48.24,4.03 48.23,4.03 L48.23,4.03 C47.52,4.03 46.83,4.05 46.15,4.08 C44.8,4.14 43.49,4.24 42.23,4.39 C42.22,4.39 42.2,4.39 42.19,4.39 C42.1,4.4 42.02,4.42 41.93,4.43 C3.69,9.24 12.11,56.17 12.11,56.17 L15.09,63.85 C15.22,64.19 15.71,64.16 15.79,63.8 C16.77,59.41 20.25,44.09 22.01,39.43 C23.05,36.67 25.91,35.07 28.81,35.6 C33.26,36.41 40.36,37.41 48.18,37.41 C48.21,37.41 48.24,37.41 48.26,37.41 C48.28,37.41 48.32,37.41 48.34,37.41 C56.17,37.41 63.26,36.41 67.71,35.6 C70.61,35.07 73.47,36.68 74.5,39.43 C76.26,44.11 79.75,59.53 80.72,63.85 C80.8,64.21 81.29,64.24 81.42,63.9 C82.35,61.54 84.4,56.17 84.4,56.17 Z" fill="url(#hairHighlights_1_)"/>
</svg>
